X: 1
T:PrettyGirls of the Village
T:Michael Anderson's
M:4/4
L:1/8
R:reel
P:ABB
D:Denis Murphy - Music from Sliabh Luachra (RTE, 1995)
K:D
dedB|ABdf efdB|AFDE FE ~E|ABdf efdf|afeg fd ~d2|
|ABdf ~e2 dB|AFDE FE ~E|ABdf efdf|afeg fd d2|
|:fa ~a2 fb ~b2|afef dB ~B2|fa ~a2 fabf|afef [d3f3] e|
fa ~a2 fabf|afdf dB ~B2|~A2 FA ABdf|afeg fd d2:|
